src/imdb/imdb-black.svg

<svg xmlns="http://www.w3.org/2000/svg" width="128" height="128"><path d="M32.508 47.385v32.734h-8.508v-32.734h8.508zm28.659 0v32.734h-7.431l-.013-22.099-2.969 22.098h-5.304l-3.108-21.601-.014 21.601h-7.431v-32.733h11.014c.321 1.969.656 4.29 1.003 6.961l1.2 8.324 1.954-15.285h11.099zm2.384 0h6.381c4.12 0 6.904.189 8.356.567 1.452.377 2.555.998 3.311 1.859.756.863 1.229 1.823 1.419 2.881.188 1.059.283 3.138.283 6.238v11.464c0 2.938-.138 4.903-.416 5.894-.277.991-.759 1.765-1.448 2.325-.69.559-1.539.95-2.553 1.173-1.013.222-2.539.333-4.578.333h-10.755v-32.734zm8.508 5.607v21.519c1.247 0 2.014-.246 2.303-.738.288-.492.432-1.828.432-4.01v-12.71c0-1.482-.048-2.431-.144-2.849-.096-.416-.315-.723-.657-.919-.344-.195-.988-.293-1.934-.293zm21.307-5.607v7.746c.673-.784 1.422-1.369 2.249-1.754.828-.385 1.726-.578 2.695-.578 1.116 0 2.085.176 2.906.527.82.35 1.446.842 1.877 1.476.429.634.689 1.255.777 1.862.087.607.131 1.902.131 3.885v12.097c0 1.97-.131 3.437-.394 4.401-.262.963-.878 1.801-1.847 2.508-.969.708-2.119 1.062-3.45 1.062-.956 0-1.847-.21-2.674-.63-.828-.42-1.584-1.05-2.27-1.891l-.525 2.024h-7.651v-32.735h8.176zm2.458 13.525c0-1.39-.086-2.297-.26-2.723-.174-.425-.514-.637-1.019-.637-.493 0-.813.186-.96.556-.147.371-.219 1.305-.219 2.803v11.575c0 1.444.082 2.368.25 2.773.165.405.495.606.989.606.506 0 .835-.209.989-.627.154-.418.23-1.424.23-3.016v-11.31z"/></svg>

<?xml version="1.0" encoding="UTF-8" standalone="no"?>
<!-- Created with Inkscape (http://www.inkscape.org/) -->

<svg
   xmlns:dc="http://purl.org/dc/elements/1.1/"
   xmlns:cc="http://creativecommons.org/ns#"
   xmlns:rdf="http://www.w3.org/1999/02/22-rdf-syntax-ns#"
   xmlns:svg="http://www.w3.org/2000/svg"
   xmlns="http://www.w3.org/2000/svg"
   xmlns:inkscape="http://www.inkscape.org/namespaces/inkscape"
   version="1.1"
   width="128"
   height="128"
   id="svg2">
  <metadata
     id="metadata10">
    <rdf:RDF>
      <cc:Work
         rdf:about="">
        <dc:format>image/svg+xml</dc:format>
        <dc:type
           rdf:resource="http://purl.org/dc/dcmitype/StillImage" />
      </cc:Work>
    </rdf:RDF>
  </metadata>
  <defs
     id="defs8" />
  <path
     d="M 32.508,47.385 V 80.119 H 24 V 47.385 h 8.508 z m 28.659,0 V 80.119 H 53.736 L 53.723,58.02 50.754,80.118 H 45.45 L 42.342,58.517 42.328,80.118 H 34.897 V 47.385 h 11.014 c 0.321,1.969 0.656,4.29 1.003,6.961 l 1.2,8.324 1.954,-15.285 h 11.099 z m 2.384,0 h 6.381 c 4.12,0 6.904,0.189 8.356,0.567 1.452,0.377 2.555,0.998 3.311,1.859 0.756,0.863 1.229,1.823 1.419,2.881 0.188,1.059 0.283,3.138 0.283,6.238 v 11.464 c 0,2.938 -0.138,4.903 -0.416,5.894 -0.277,0.991 -0.759,1.765 -1.448,2.325 -0.69,0.559 -1.539,0.95 -2.553,1.173 -1.013,0.222 -2.539,0.333 -4.578,0.333 H 63.551 V 47.385 z m 8.508,5.607 v 21.519 c 1.247,0 2.014,-0.246 2.303,-0.738 0.288,-0.492 0.432,-1.828 0.432,-4.01 v -12.71 c 0,-1.482 -0.048,-2.431 -0.144,-2.849 -0.096,-0.416 -0.315,-0.723 -0.657,-0.919 -0.344,-0.195 -0.988,-0.293 -1.934,-0.293 z m 21.307,-5.607 v 7.746 c 0.673,-0.784 1.422,-1.369 2.249,-1.754 0.828,-0.385 1.726,-0.578 2.695,-0.578 1.116,0 2.085,0.176 2.906,0.527 0.82,0.35 1.446,0.842 1.877,1.476 0.429,0.634 0.689,1.255 0.777,1.862 0.087,0.607 0.131,1.902 0.131,3.885 v 12.097 c 0,1.97 -0.131,3.437 -0.394,4.401 -0.262,0.963 -0.878,1.801 -1.847,2.508 -0.969,0.708 -2.119,1.062 -3.45,1.062 -0.956,0 -1.847,-0.21 -2.674,-0.63 -0.828,-0.42 -1.584,-1.05 -2.27,-1.891 L 92.841,80.12 H 85.19 V 47.385 h 8.176 z m 2.458,13.525 c 0,-1.39 -0.086,-2.297 -0.26,-2.723 -0.174,-0.425 -0.514,-0.637 -1.019,-0.637 -0.493,0 -0.813,0.186 -0.96,0.556 -0.147,0.371 -0.219,1.305 -0.219,2.803 v 11.575 c 0,1.444 0.082,2.368 0.25,2.773 0.165,0.405 0.495,0.606 0.989,0.606 0.506,0 0.835,-0.209 0.989,-0.627 0.154,-0.418 0.23,-1.424 0.23,-3.016 V 60.91 z"
     inkscape:connector-curvature="0"
     id="path4" />
</svg>
